svgs/sharp-light/boot.svg

<svg xmlns="http://www.w3.org/2000/svg" viewBox="0 0 512 512"><!--! Font Awesome Pro 6.6.0 by @fontawesome - https://fontawesome.com License - https://fontawesome.com/license (Commercial License) Copyright 2024 Fonticons, Inc. --><path d="M32 32l320 0 0 64L32 96l0-64zM0 0L0 32 0 96l0 32 32 0 320 0 32 0 0-32 0-64 0-32L352 0 32 0 0 0zM240 160l-16 0 0 32 16 0 80 0 0 32-80 0-16 0 0 32 16 0 80.6 0 22.2 6.7L480 303.8l0 80.2L32 384l0-224L0 160 0 384l0 32 0 64 32 32 64 0 9.4-9.4L128 480l22.6 22.6L160 512l64 0 9.4-9.4L256 480l22.6 22.6L288 512l64 0 9.4-9.4L384 480l22.6 22.6L416 512l64 0 32-32 0-64 0-32 0-104L352 232l0-8 0-64-16 0-16 0-80 0zM32 416l64 0 320 0 64 0 0 50.7L466.7 480l-37.5 0-22.6-22.6-9.4-9.4-26.5 0-9.4 9.4L338.7 480l-37.5 0-22.6-22.6-9.4-9.4-26.5 0-9.4 9.4L210.7 480l-37.5 0-22.6-22.6-9.4-9.4-26.5 0-9.4 9.4L82.7 480l-37.5 0L32 466.7 32 416z"/></svg>

<svg xmlns="http://www.w3.org/2000/svg" viewBox="0 0 512 512"><!--! Font Awesome Pro 6.4.2 by @fontawesome - https://fontawesome.com License - https://fontawesome.com/license (Commercial License) Copyright 2023 Fonticons, Inc. --><path d="M32 32H352V96H32V32zM0 0V32 96v32H32 352h32V96 32 0H352 32 0zM240 160H224v32h16 80v32H240 224v32h16 80.6l22.2 6.7L480 303.8V384H32V160H0V384v32 64l32 32H96l9.4-9.4L128 480l22.6 22.6L160 512h64l9.4-9.4L256 480l22.6 22.6L288 512h64l9.4-9.4L384 480l22.6 22.6L416 512h64l32-32V416 384 280L352 232v-8V160H336 320 240zM32 416H96 416h64v50.7L466.7 480H429.3l-22.6-22.6-9.4-9.4H370.7l-9.4 9.4L338.7 480H301.3l-22.6-22.6-9.4-9.4H242.7l-9.4 9.4L210.7 480H173.3l-22.6-22.6-9.4-9.4H114.7l-9.4 9.4L82.7 480H45.3L32 466.7V416z"/></svg>
